T: Beeswing, The
M: 4/4
L: 1/8
K: Gmaj
|:FA|BfdB AecA|FdBF DBFD|EGce DFBd|(3cdc (3BAG F2GA|Bfdb Afca|EBGe DBFd|EGce dcBA|c2B2 B2:||:fe|dBfd bfdB|cAfc afcA|GEBG ecdB|(3cdc (3BAG F2GA|Bfdb Afca|EBGe DBFd|EGce dcBA|c2B2 B2:|The main part where the settings differ is that triplet run which sometimes appears as |(3cBA (3BAG F2GA| or |(3cdB (3ABG F2GA|.
